%
(Cold plate per)
(P/N=   Rev. 1)
(Cycle Time= 0 HRS.  2 MIN. 11 SEC.)
(Date Posted  9/9/2022  15:48 )

(WCS = G)

(STOCK - 6061-T6)

(TOOL LIST)
(T135 = 1/4 EM CRB 4FL 3/4  LOC)

G17 G40 G49 G50 G54 G64 G80 G90 G91.1 G94
G20
G30

N10 ( Contour Mill2 )
(1/4 EM CRB 4FL 3/4  LOC)
M6 T135 G43 H135
S4000 M3 M8
G54
G0 X0 Y4.1014
Z1.
Z.1
G1 X1.237 Z-.1181 F30.
X4.8888
Y-4.1014
X-4.8888
Y4.1014
X1.237
G0 Z.1
X0
G1 X1.237 Z-.1181 F100.
X4.8888
Y-4.1014
X-4.8888
Y4.1014
X4.8888
Y-4.1014
X-4.8888
Y4.1014
X1.237
G0 Z.1
Z1.
M5 M9

G30
G0 G53 Z0
G0 G53 X7. Y0.
M30
%
