%
(Cold plate 2 drill t140)
(P/N=   Rev. 1)
(Cycle Time= 0 HRS.  2 MIN. 27 SEC.)
(Date Posted  9/9/2022  15:48 )

(WCS = G)

(STOCK - 6061-T6)

(TOOL LIST)
(T140 = 6-32 TAP DRILL)

G17 G40 G49 G50 G54 G64 G80 G90 G91.1 G94
G20
G30

N10 ( Drill1 (6-32) )
(6-32 TAP DRILL)
M6 T140 G43 H140
S939 M3 M8
G54
G0 X-3.6713 Y2.3652
Z1.
Z.1
G81 G99 R.1 Z-.1181 F23.8498
Y.8533
Y-.8533
Y-2.3652
X-.4626
X.4626
Y-.8533
X-.4626
Y.8533
X.4626
Y2.3652
X-.4626
X3.6713
Y.8533
Y-.8533
Y-2.3652
G80
G0 Z1.
M5 M9

G30
G0 G53 Z0
G0 G53 X7. Y0.
M30
%
