%
(Cold plate drill t136)
(P/N=   Rev. 1)
(Cycle Time= 0 HRS.  2 MIN. 52 SEC.)
(Date Posted  9/9/2022  15:48 )

(WCS = G)

(STOCK - 6061-T6)

(TOOL LIST)
(T136 = #25 SCREW MACH DRILL)

G17 G40 G49 G50 G54 G64 G80 G90 G91.1 G94
G20
G30

N10 ( Drill6 )
(#25 SCREW MACH DRILL)
M6 T136 G43 H136
S200 M3 M8
G54
G0 X-4.4291 Y2.7559
Z1.
Z.1
G81 G99 R.1 Z-.394 F5.08
Y0
Y-2.7559
X4.4291
Y0
Y2.7559
G80
G0 Z1.
M5 M9

G30
G0 G53 Z0
G0 G53 X7. Y0.
M30
%
